X: 4145
M: C
L: 1/8
K: Am
[|\
d>ef>d e>cA>c | (3dcB (3cBA ^G<B B>e |]
[|\
e<a a>g e<a a>g | (3edc (3dcB A3e |\
d<g g>e d<g g>e | (3dcB (3cBA G3f |\
e<a a>g e<a a>g | (3edc (3dcB A3e |\
d>ef>d c>de>a | e>dc>B A3z |]


